X: 1568
T: Crossroads Dance., The
T: rince bo.tair-na-.crio.sa.
R:Hornpipe
B:O'Neill's 1568
M:2/4
K:G
D2 \
| G2BA B2BA | GABc d2ef | gfed edcB | cBAG GFED |
| G2BA G2BA | GABc d2ef | gfed egfa | gbafg2 Hx :|
|: B2 \
| e2ef g2ga | b2g2 f2e2 | d2de f2fg | a2f2 e2d2 |
| e2ef g2ga | b2g2 f2e2 | b^abc b=agf | e2g2 e4 "D.C." :|


